X: 36797
T: Shetland Fiddle Diva, The
R: jig
M: 6/8
K: Eminor
B,EG FEF|B,EG FEF|BEG FED|ADF E2D|
B,EG FEF|BEG FED|B,DB DFd|FBf Bdb:|
c'ba ecB|ABc cBA|BGE FEF|B,EG FEF|
CEG FEG|cEG FED|B,^CD CDE|DFA FAB|
cBA ECB,|A,B,C CB,A,|BGE FEF|B,EG FEG|
c3c2d|d3d3|d2 c2 B2|G3F3||

